Newaita-dark/apps/16/input-tablet.svg

<svg height="16" viewBox="0 0 16 16" width="16" xmlns="http://www.w3.org/2000/svg" xmlns:xlink="http://www.w3.org/1999/xlink"><linearGradient id="a" gradientTransform="matrix(.0500048 0 0 .031253 -4.762959 6.05787)" gradientUnits="userSpaceOnUse" x1="254" x2="254" y1="233.5" y2="254.666672"><stop offset="0" stop-opacity=".27451"/><stop offset="1" stop-opacity="0"/></linearGradient><linearGradient id="b"><stop offset="0" stop-opacity=".313726"/><stop offset=".222222" stop-opacity=".27451"/><stop offset="1" stop-opacity="0"/></linearGradient><radialGradient id="c" cx="450.908936" cy="189.579361" gradientTransform="matrix(.00000009 -.0390662 -.0703192 -.00000005 26.396085 31.136144)" gradientUnits="userSpaceOnUse" r="21.166656" xlink:href="#b"/><radialGradient id="d" cx="450.908936" cy="189.579361" gradientTransform="matrix(-.00000009 .0390662 .0703192 .00000005 -10.519571 -4.425262)" gradientUnits="userSpaceOnUse" r="21.166656" xlink:href="#b"/><radialGradient id="e" cx="450.908936" cy="189.579361" gradientTransform="matrix(-.00000009 -.0390662 .0703192 -.00000005 -10.519571 31.136144)" gradientUnits="userSpaceOnUse" r="21.166656" xlink:href="#b"/><radialGradient id="f" cx="450.908936" cy="189.579361" gradientTransform="matrix(.00000009 .0390662 -.0703192 .00000005 26.396084 -4.425262)" gradientUnits="userSpaceOnUse" r="21.166656" xlink:href="#b"/><linearGradient id="g" gradientUnits="userSpaceOnUse" x1="7.938262" x2="7.938262" y1="13.35544549998" y2="2.1095745"><stop offset="0" stop-color="#616161"/><stop offset="1" stop-color="#757575"/></linearGradient><linearGradient id="h" gradientTransform="matrix(.944444 0 0 1.071429 3.527778 -13.654765)" gradientUnits="userSpaceOnUse" x1="254" x2="254" y1="191.166672" y2="-105.166656"><stop offset="0" stop-color="#424242"/><stop offset="1" stop-color="#616161"/></linearGradient><path d="m2.644531 13.355469h10.585938v.660156h-10.585938zm0 0" fill="url(#a)"/><path d="m13.230469 13.355469h1.324219v-.660157h-1.324219zm0 0" fill="url(#c)"/><path d="m2.644531 13.355469h-1.320312v.660156h1.320312zm0 0" fill="url(#d)"/><path d="m2.644531 13.355469h-1.320312v-.660157h1.320312zm0 0" fill="url(#e)"/><path d="m13.230469 13.355469h1.324219v.660156h-1.324219zm0 0" fill="url(#f)"/><path d="m1.984375 2.109375h11.90625c.367187 0 .664063.296875.664063.660156v9.925781c0 .363282-.296876.660157-.664063.660157h-11.90625c-.363281 0-.660156-.296875-.660156-.660157v-9.925781c0-.363281.296875-.660156.660156-.660156zm0 0" fill="url(#g)"/><path d="m83.492027-126.383462h319.844456c10.99895 0 19.998091 10.249021 19.998091 22.747827v272.099016c0 12.498806-8.999141 22.747828-19.998091 22.747828h-319.844456c-10.99895 0-19.99809-10.249022-19.99809-22.747828v-272.099016c0-12.498806 8.99914-22.747827 19.99809-22.747827zm0 0" fill="url(#h)" stroke="#212121" stroke-linecap="round" stroke-linejoin="round" stroke-width="3.017804" transform="matrix(.031253 0 0 .031253 0 6.719392)"/><path d="m444.457556 21.852382c5.874439 0 10.623986 4.249594 10.623986 9.624081v1.874821c0 5.374486-4.749547 9.624081-10.623986 9.624081-5.749451 0-10.498997-4.249595-10.498997-9.624081v-1.874821c0-5.374487 4.749546-9.624081 10.498997-9.624081zm0 0" fill="none" stroke="#212121" stroke-linecap="round" stroke-linejoin="round" stroke-width="3" transform="matrix(.031253 0 0 .031253 0 6.719392)"/><path d="m1.984375 2.109375c-.367187 0-.660156.296875-.660156.660156v.167969c0-.367188.292969-.664062.660156-.664062h11.90625c.367187 0 .664063.296874.664063.664062v-.167969c0-.363281-.296876-.660156-.664063-.660156zm0 0" fill="#fff" fill-opacity=".392157"/><path d="m1.984375 13.355469c-.367187 0-.660156-.296875-.660156-.660157v-.167968c0 .367187.292969.664062.660156.664062h11.90625c.367187 0 .664063-.296875.664063-.664062v.167968c0 .363282-.296876.660157-.664063.660157zm0 0" fill-opacity=".235294"/><path d="m1.984375 2.0625c-.390625 0-.707031.316406-.707031.707031v9.925781c0 .390626.316406.707032.707031.707032h11.90625c.394531 0 .710937-.316406.710937-.707032v-9.925781c0-.390625-.316406-.707031-.710937-.707031zm0 .09375h11.90625c.34375 0 .617187.273438.617187.613281v9.925781c0 .339844-.273437.613282-.617187.613282h-11.90625c-.339844 0-.613281-.273438-.613281-.613282v-9.925781c0-.339843.273437-.613281.613281-.613281zm0 0" fill="#212121"/><g fill="none" stroke="#212121" stroke-linecap="round" stroke-linejoin="round" stroke-width="3" transform="matrix(.031253 0 0 .031253 0 6.719392)"><path d="m444.457556-31.142558c5.874439 0 10.623986 4.374583 10.623986 9.624081v1.999809c0 5.249499-4.749547 9.624081-10.623986 9.624081-5.749451 0-10.498997-4.374582-10.498997-9.624081v-1.999809c0-5.249498 4.749546-9.624081 10.498997-9.624081zm0 0"/><path d="m444.457556 74.722333c5.874439 0 10.623986 4.374582 10.623986 9.624081v1.999809c0 5.249499-4.749547 9.624081-10.623986 9.624081-5.749451 0-10.498997-4.374582-10.498997-9.624081v-1.999809c0-5.249499 4.749546-9.624081 10.498997-9.624081zm0 0"/></g></svg>

<?xml version="1.0" encoding="UTF-8"?>
<svg xmlns="http://www.w3.org/2000/svg" xmlns:xlink="http://www.w3.org/1999/xlink" width="16px" height="16px" viewBox="0 0 16 16" version="1.1">
<defs>
<linearGradient id="linear0" gradientUnits="userSpaceOnUse" x1="254" y1="233.5" x2="254" y2="254.666672" gradientTransform="matrix(0.0500048,0,0,0.031253,-4.762959,6.05787)">
<stop offset="0" style="stop-color:rgb(0%,0%,0%);stop-opacity:0.27451;"/>
<stop offset="1" style="stop-color:rgb(0%,0%,0%);stop-opacity:0;"/>
</linearGradient>
<radialGradient id="radial0" gradientUnits="userSpaceOnUse" cx="450.908936" cy="189.579361" fx="450.908936" fy="189.579361" r="21.166656" gradientTransform="matrix(0.0000000870852,-0.0390662,-0.0703192,-0.0000000507693,26.396085,31.136144)">
<stop offset="0" style="stop-color:rgb(0%,0%,0%);stop-opacity:0.313726;"/>
<stop offset="0.222222" style="stop-color:rgb(0%,0%,0%);stop-opacity:0.27451;"/>
<stop offset="1" style="stop-color:rgb(0%,0%,0%);stop-opacity:0;"/>
</radialGradient>
<radialGradient id="radial1" gradientUnits="userSpaceOnUse" cx="450.908936" cy="189.579361" fx="450.908936" fy="189.579361" r="21.166656" gradientTransform="matrix(-0.0000000870852,0.0390662,0.0703192,0.0000000507693,-10.519571,-4.425262)">
<stop offset="0" style="stop-color:rgb(0%,0%,0%);stop-opacity:0.313726;"/>
<stop offset="0.222222" style="stop-color:rgb(0%,0%,0%);stop-opacity:0.27451;"/>
<stop offset="1" style="stop-color:rgb(0%,0%,0%);stop-opacity:0;"/>
</radialGradient>
<radialGradient id="radial2" gradientUnits="userSpaceOnUse" cx="450.908936" cy="189.579361" fx="450.908936" fy="189.579361" r="21.166656" gradientTransform="matrix(-0.0000000870852,-0.0390662,0.0703192,-0.0000000507693,-10.519571,31.136144)">
<stop offset="0" style="stop-color:rgb(0%,0%,0%);stop-opacity:0.313726;"/>
<stop offset="0.222222" style="stop-color:rgb(0%,0%,0%);stop-opacity:0.27451;"/>
<stop offset="1" style="stop-color:rgb(0%,0%,0%);stop-opacity:0;"/>
</radialGradient>
<radialGradient id="radial3" gradientUnits="userSpaceOnUse" cx="450.908936" cy="189.579361" fx="450.908936" fy="189.579361" r="21.166656" gradientTransform="matrix(0.0000000870852,0.0390662,-0.0703192,0.0000000507693,26.396084,-4.425262)">
<stop offset="0" style="stop-color:rgb(0%,0%,0%);stop-opacity:0.313726;"/>
<stop offset="0.222222" style="stop-color:rgb(0%,0%,0%);stop-opacity:0.27451;"/>
<stop offset="1" style="stop-color:rgb(0%,0%,0%);stop-opacity:0;"/>
</radialGradient>
<linearGradient id="linear1" gradientUnits="userSpaceOnUse" x1="254" y1="212.333328" x2="254" y2="-147.5" gradientTransform="matrix(0.031253,0,0,0.031253,0,6.719392)">
<stop offset="0" style="stop-color:rgb(38.039216%,38.039216%,38.039216%);stop-opacity:1;"/>
<stop offset="1" style="stop-color:rgb(45.882353%,45.882353%,45.882353%);stop-opacity:1;"/>
</linearGradient>
<linearGradient id="linear2" gradientUnits="userSpaceOnUse" x1="254" y1="191.166672" x2="254" y2="-105.166656" gradientTransform="matrix(0.944444,0,0,1.071429,3.527778,-13.654765)">
<stop offset="0" style="stop-color:rgb(25.882354%,25.882354%,25.882354%);stop-opacity:1;"/>
<stop offset="1" style="stop-color:rgb(38.039216%,38.039216%,38.039216%);stop-opacity:1;"/>
</linearGradient>
</defs>
<g id="surface1">
<path style=" stroke:none;fill-rule:nonzero;fill:url(#linear0);" d="M 2.644531 13.355469 L 13.230469 13.355469 L 13.230469 14.015625 L 2.644531 14.015625 Z M 2.644531 13.355469 "/>
<path style=" stroke:none;fill-rule:nonzero;fill:url(#radial0);" d="M 13.230469 13.355469 L 14.554688 13.355469 L 14.554688 12.695312 L 13.230469 12.695312 Z M 13.230469 13.355469 "/>
<path style=" stroke:none;fill-rule:nonzero;fill:url(#radial1);" d="M 2.644531 13.355469 L 1.324219 13.355469 L 1.324219 14.015625 L 2.644531 14.015625 Z M 2.644531 13.355469 "/>
<path style=" stroke:none;fill-rule:nonzero;fill:url(#radial2);" d="M 2.644531 13.355469 L 1.324219 13.355469 L 1.324219 12.695312 L 2.644531 12.695312 Z M 2.644531 13.355469 "/>
<path style=" stroke:none;fill-rule:nonzero;fill:url(#radial3);" d="M 13.230469 13.355469 L 14.554688 13.355469 L 14.554688 14.015625 L 13.230469 14.015625 Z M 13.230469 13.355469 "/>
<path style=" stroke:none;fill-rule:nonzero;fill:url(#linear1);" d="M 1.984375 2.109375 L 13.890625 2.109375 C 14.257812 2.109375 14.554688 2.40625 14.554688 2.769531 L 14.554688 12.695312 C 14.554688 13.058594 14.257812 13.355469 13.890625 13.355469 L 1.984375 13.355469 C 1.621094 13.355469 1.324219 13.058594 1.324219 12.695312 L 1.324219 2.769531 C 1.324219 2.40625 1.621094 2.109375 1.984375 2.109375 Z M 1.984375 2.109375 "/>
<path style="fill-rule:nonzero;fill:url(#linear2);stroke-width:3.017804;stroke-linecap:round;stroke-linejoin:round;stroke:rgb(12.941177%,12.941177%,12.941177%);stroke-opacity:1;stroke-miterlimit:4;" d="M 83.492027 -126.383462 L 403.336483 -126.383462 C 414.335433 -126.383462 423.334574 -116.134441 423.334574 -103.635635 L 423.334574 168.463381 C 423.334574 180.962187 414.335433 191.211209 403.336483 191.211209 L 83.492027 191.211209 C 72.493077 191.211209 63.493937 180.962187 63.493937 168.463381 L 63.493937 -103.635635 C 63.493937 -116.134441 72.493077 -126.383462 83.492027 -126.383462 Z M 83.492027 -126.383462 " transform="matrix(0.031253,0,0,0.031253,0,6.719392)"/>
<path style="fill:none;stroke-width:3;stroke-linecap:round;stroke-linejoin:round;stroke:rgb(12.941177%,12.941177%,12.941177%);stroke-opacity:1;stroke-miterlimit:4;" d="M 444.457556 21.852382 C 450.331995 21.852382 455.081542 26.101976 455.081542 31.476463 L 455.081542 33.351284 C 455.081542 38.72577 450.331995 42.975365 444.457556 42.975365 C 438.708105 42.975365 433.958559 38.72577 433.958559 33.351284 L 433.958559 31.476463 C 433.958559 26.101976 438.708105 21.852382 444.457556 21.852382 Z M 444.457556 21.852382 " transform="matrix(0.031253,0,0,0.031253,0,6.719392)"/>
<path style=" stroke:none;fill-rule:nonzero;fill:rgb(100%,100%,100%);fill-opacity:0.392157;" d="M 1.984375 2.109375 C 1.617188 2.109375 1.324219 2.40625 1.324219 2.769531 L 1.324219 2.9375 C 1.324219 2.570312 1.617188 2.273438 1.984375 2.273438 L 13.890625 2.273438 C 14.257812 2.273438 14.554688 2.570312 14.554688 2.9375 L 14.554688 2.769531 C 14.554688 2.40625 14.257812 2.109375 13.890625 2.109375 Z M 1.984375 2.109375 "/>
<path style=" stroke:none;fill-rule:nonzero;fill:rgb(0%,0%,0%);fill-opacity:0.235294;" d="M 1.984375 13.355469 C 1.617188 13.355469 1.324219 13.058594 1.324219 12.695312 L 1.324219 12.527344 C 1.324219 12.894531 1.617188 13.191406 1.984375 13.191406 L 13.890625 13.191406 C 14.257812 13.191406 14.554688 12.894531 14.554688 12.527344 L 14.554688 12.695312 C 14.554688 13.058594 14.257812 13.355469 13.890625 13.355469 Z M 1.984375 13.355469 "/>
<path style=" stroke:none;fill-rule:nonzero;fill:rgb(12.941177%,12.941177%,12.941177%);fill-opacity:1;" d="M 1.984375 2.0625 C 1.59375 2.0625 1.277344 2.378906 1.277344 2.769531 L 1.277344 12.695312 C 1.277344 13.085938 1.59375 13.402344 1.984375 13.402344 L 13.890625 13.402344 C 14.285156 13.402344 14.601562 13.085938 14.601562 12.695312 L 14.601562 2.769531 C 14.601562 2.378906 14.285156 2.0625 13.890625 2.0625 Z M 1.984375 2.15625 L 13.890625 2.15625 C 14.234375 2.15625 14.507812 2.429688 14.507812 2.769531 L 14.507812 12.695312 C 14.507812 13.035156 14.234375 13.308594 13.890625 13.308594 L 1.984375 13.308594 C 1.644531 13.308594 1.371094 13.035156 1.371094 12.695312 L 1.371094 2.769531 C 1.371094 2.429688 1.644531 2.15625 1.984375 2.15625 Z M 1.984375 2.15625 "/>
<path style="fill:none;stroke-width:3;stroke-linecap:round;stroke-linejoin:round;stroke:rgb(12.941177%,12.941177%,12.941177%);stroke-opacity:1;stroke-miterlimit:4;" d="M 444.457556 -31.142558 C 450.331995 -31.142558 455.081542 -26.767975 455.081542 -21.518477 L 455.081542 -19.518668 C 455.081542 -14.269169 450.331995 -9.894587 444.457556 -9.894587 C 438.708105 -9.894587 433.958559 -14.269169 433.958559 -19.518668 L 433.958559 -21.518477 C 433.958559 -26.767975 438.708105 -31.142558 444.457556 -31.142558 Z M 444.457556 -31.142558 " transform="matrix(0.031253,0,0,0.031253,0,6.719392)"/>
<path style="fill:none;stroke-width:3;stroke-linecap:round;stroke-linejoin:round;stroke:rgb(12.941177%,12.941177%,12.941177%);stroke-opacity:1;stroke-miterlimit:4;" d="M 444.457556 74.722333 C 450.331995 74.722333 455.081542 79.096915 455.081542 84.346414 L 455.081542 86.346223 C 455.081542 91.595722 450.331995 95.970304 444.457556 95.970304 C 438.708105 95.970304 433.958559 91.595722 433.958559 86.346223 L 433.958559 84.346414 C 433.958559 79.096915 438.708105 74.722333 444.457556 74.722333 Z M 444.457556 74.722333 " transform="matrix(0.031253,0,0,0.031253,0,6.719392)"/>
</g>
</svg>
